!!!COM: Vivaldi, Antonio
!!!OTL: Concerto a violino solo, No. 8
!!!XEN: Violin Concerto No. 8 in G minor
!!!OPR: Il Cimento dell'armonia e dell'inventione
!!!XEN: The Contest of Harmony and Invention
!!!OPS: Opus 8
!!!ONM: No. 8
!!!OMV: Movement 3.
!!!YEC: Copyright 1996, Center for Computer Assisted Research in the Humanities
!!!YEM: Rights to all derivative electronic formats reserved.
!!!YEM: Refer to licensing agreement for important restrictions.
!!!OMD: Allegro
**kern	**kern	**kern	**kern	**kern	**Bnum
*Icello	*Iviola	*Ivioln	*Ivioln	*Ivioln	*Icemba
*Icemba	*	*	*	*	*
*ICstr	*ICstr	*ICstr	*ICstr	*ICstr	*ICklav
*ICklav	*	*	*	*	*
!cello	!viola 	!violino 2	!violino 1	!violino principale	!continuo
!basso continuo	!	!	!	!	!
*clefF4	*clefC3	*clefG2	*clefG2	*clefG2	*
*k[b-e-]	*k[b-e-]	*k[b-e-]	*k[b-e-]	*k[b-e-]	*k[b-e-]
*g:	*g:	*g:	*g:	*g:	*g:
*M3/4	*M3/4	*M3/4	*M3/4	*M3/4	*M3/4
*>Selfridge-Field[etc1,S140,etc2,S142,etc3]	*>Selfridge-Field[etc1,S140,etc2,S142,etc3]	*>Selfridge-Field[etc1,S140,etc2,S142,etc3]	*>Selfridge-Field[etc1,S140,etc2,S142,etc3]	*>Selfridge-Field[etc1,S140,etc2,S142,etc3]	*>Selfridge-Field[etc1,S140,etc2,S142,etc3]
*>Amsterdam[etc1,A140,etc2,S142,etc3]	*>Amsterdam[etc1,A140,etc2,S142,etc3]	*>Amsterdam[etc1,A140,etc2,S142,etc3]	*>Amsterdam[etc1,A140,etc2,S142,etc3]	*>Amsterdam[etc1,A140,etc2,S142,etc3]	*>Amsterdam[etc1,A140,etc2,S142,etc3]
*>Turin[etc1,S140,etc2,T142,etc3]	*>Turin[etc1,S140,etc2,T142,etc3]	*>Turin[etc1,S140,etc2,T142,etc3]	*>Turin[etc1,S140,etc2,T142,etc3]	*>Turin[etc1,S140,etc2,T142,etc3]	*>Turin[etc1,S140,etc2,T142,etc3]
*>etc1	*>etc1	*>etc1	*>etc1	*>etc1	*>etc1
=1-	=1-	=1-	=1-	=1-	=1-
4G\	4d\	8g\L	8b-\L	8b-\L	.
.	.	8dd\	8gg\	8gg\	.
4GG/	4d\	8gg\	8bb-\	8bb-\	.
.	.	8dd\	8gg\	8gg\	.
4G\	4d\	8gg\	8bb-\	8bb-\	.
.	.	8dd\J	8gg\J	8gg\J	.
=2	=2	=2	=2	=2	=2
8d\L	8d\L	(4cc\	(4ff#\	(4ff#\	#
8D\	8f#\	.	.	.	.
8d\	8d\	4ff#\)	4aa\)	4aa\)	.
8D\	8f#\	.	.	.	.
8d\	8d\	4a/	4cc\	4cc\	.
8D\J	8f#\J	.	.	.	.
=3	=3	=3	=3	=3	=3
4G\	4d\	8g\L	8b-\L	8b-\L	.
.	.	8dd\	8gg\	8gg\	.
4GG/	4d\	8gg\	8bb-\	8bb-\	.
.	.	8dd\	8gg\	8gg\	.
4G\	4d\	8gg\	8bb-\	8bb-\	.
.	.	8dd\J	8gg\J	8gg\J	.
=4	=4	=4	=4	=4	=4
8d\L	8d\L	(4cc\	(4ff#\	(4ff#\	#
8D\	8f#\	.	.	.	.
8d\	8d\	4ff#\)	4aa\)	4aa\)	.
8D\	8f#\	.	.	.	.
8d\	8d\	4a/	4cc\	4cc\	.
8D\J	8f#\J	.	.	.	.
=5	=5	=5	=5	=5	=5
4G\	4d\	8g\L	8b-\L	8b-\L	.
.	.	8gg\	8bb-\	8bb-\	.
4GG/	4d\	8bb-\	8ddd\	8ddd\	.
.	.	8gg\	8bb-\	8bb-\	.
4G\	4d\	8bb-\	8ddd\	8ddd\	.
.	.	8gg\J	8bb-\J	8bb-\J	.
=6	=6	=6	=6	=6	=6
8d\L	8d\L	4ff#\	4aa\	4aa\	#
8D\	8f#\	.	.	.	.
8d\	8d\	4r	4r	4r	.
8D\	8f#\	.	.	.	.
8d\	8d\	4r	4r	4r	.
8D\J	8f#\J	.	.	.	.
=7	=7	=7	=7	=7	=7
4G\	4d\	8ffn\L	8bbn\L	8bbn\L	n7 n
.	.	8bbn\	8ddd\	8ddd\	.
4GG/	4d\	8ff\	8bb\	8bb\	.
.	.	8bb\	8ddd\	8ddd\	.
4G\	4g\	8dd\	8ff\	8ff\	.
.	.	8bn\J	8ddd\J	8ddd\J	.
=8	=8	=8	=8	=8	=8
8c\L	4g\	(4cc\	(4een\	(4een\	n
8C\	.	.	.	.	.
8c\	4g\	4een\)	4gg\)	4gg\)	.
8C\	.	.	.	.	.
8c\	4en\	4gg\	4ccc\	4ccc\	.
8C\J	.	.	.	.	.
=9	=9	=9	=9	=9	=9
4F\	4c\	8ee-\L	8aa\L	8aa\L	b7
.	.	8aa\	8ccc\	8ccc\	.
4FF/	4c\	8ee-\	8aa\	8aa\	.
.	.	8aa\	8ccc\	8ccc\	.
4F\	4f\	8cc\	8ee-\	8ee-\	.
.	.	8a\J	8ccc\J	8ccc\J	.
=10	=10	=10	=10	=10	=10
8B-\L	4f\	(4b-\	(4dd\	(4dd\	.
8BB-\	.	.	.	.	.
8B-\	4f\	4dd\)	4ff\)	4ff\)	.
8BB-\	.	.	.	.	.
8B-\	4d\	4ff\	4bb-\	4bb-\	.
8BB-\J	.	.	.	.	.
=11	=11	=11	=11	=11	=11
4B-\	4d\	8b-\L	8gg\L	8gg\L	6
.	.	8gg\	8bb-\	8bb-\	.
4BB-/	4d\	8dd\	8gg\	8gg\	.
.	.	8gg\	8bb-\	8bb-\	.
4G\	4d\	8b-\	8dd\	8dd\	.
.	.	8g\J	8bb-\J	8bb-\J	.
=12	=12	=12	=12	=12	=12
8c\L	4e-\	(4a/	(4cc\	(4cc\	6
8C\	.	.	.	.	.
8c\	4e-\	4cc\)	4ee-\)	4ee-\)	.
8C\	.	.	.	.	.
8c\	4e-\	4ee-\	4aa\	4aa\	.
8C\J	.	.	.	.	.
=13	=13	=13	=13	=13	=13
4d\	4a\	8cc\L	8ff#\L	8ff#\L	7 #
.	.	8ff#\	8aa\	8aa\	.
4D\	4a\	8cc\	8ff#\	8ff#\	.
.	.	8ff#\	8aa\	8aa\	.
4d\	4f#\	8a\	8cc\	8cc\	.
.	.	8f#\J	8aa\J	8aa\J	.
=14	=14	=14	=14	=14	=14
8G\L	8d\L	4g/	4b-\	4b-\	.
8G\	8d\	.	.	.	.
8G\	8d\	2gg\	2gg\	2gg\	.
8G\	8d\	.	.	.	.
8G\	8d\	.	.	.	.
8G\J	8d\J	.	.	.	.
=15	=15	=15	=15	=15	=15
8A\L	8c\L	4cc\	4cc\	4cc\	7 5
8A\	8c\	.	.	.	.
8A\	8c\	2gg\	2gg\	2gg\	.
8A\	8c\	.	.	.	.
8A\	8c\	.	.	.	.
8A\J	8c\J	.	.	.	.
=16	=16	=16	=16	=16	=16
8B-\L	8B-/L	4dd\	4dd\	4dd\	6
8B-\	8B-/	.	.	.	.
8B-\	8B-/	2gg\	2gg\	2gg\	.
8B-\	8B-/	.	.	.	.
8B-\	8B-/	.	.	.	.
8B-\J	8B-/J	.	.	.	.
=17	=17	=17	=17	=17	=17
8c\L	8g\L	4ee-\	4ee-\	4ee-\	6 5
8c\	8g\	.	.	.	.
8c\	8e-\	2gg\	2gg\	2gg\	.
8c\	8e-\	.	.	.	.
8c\	8cc\	.	.	.	.
8c\J	8cc\J	.	.	.	.
=18	=18	=18	=18	=18	=18
4d\	4a\	8ff#\L	8ff#\L	8ff#\L	#
.	.	16aa\L	16aa\L	16aa\L	.
.	.	16gg\JJ	16gg\JJ	16gg\JJ	.
4r	4r	8ff#\L	8ff#\L	8ff#\L	.
.	.	8een\J	8een\J	8een\J	.
4r	4r	8dd\L	8dd\L	8dd\L	.
.	.	8cc\J	8cc\J	8cc\J	.
=19	=19	=19	=19	=19	=19
4G\	4d\	8b-\L	8b-\L	8b-\L	.
.	.	16dd\L	16dd\L	16dd\L	.
.	.	16cc\JJ	16cc\JJ	16cc\JJ	.
4r	4r	8b-/L	8b-/L	8b-/L	.
.	.	8a/J	8a/J	8a/J	.
4r	4r	8g/L	8g/L	8g/L	.
.	.	8f/J	8f/J	8f/J	.
=20	=20	=20	=20	=20	=20
8E-\L	8G/L	8e-/L	8e-/L	8e-/L	6
16E-\L	16e-/L	16e-/L	16e-/L	16e-/L	.
16D\JJ	16d/JJ	16d/JJ	16d/JJ	16d/JJ	.
8C/L	8c/L	8c/L	8c/L	8c/L	.
8BB-/J	8B-/J	8B-/J	8B-/J	8B-/J	.
8AA/L	8A/L	8A/L	8A/L	8A/L	.
8GG/J	8G/J	8G/J	8G/J	8G/J	.
=21	=21	=21	=21	=21	=21
4D\	4d\	4d/	4d/	4d/	#
4GG/	4d\	4b-\	4gg\	4gg\	.
4G\	4b-\	4r	4r	4r	.
=22	=22	=22	=22	=22	=22
4D\	4a\	8r	8r	8r	#
.	.	16a/LL	16ff#\LL	16ff#\LL	.
.	.	16b-/JJ	16gg\JJ	16gg\JJ	.
4DD/	4f#\	8cc/L	8aa\L	8aa\L	.
.	.	8a/J	8cc\J	8cc\J	.
4D\	4f#\	8g/L	8b-/L	8b-/L	.
.	.	8f#/J	8a/J	8a/J	.
=23	=23	=23	=23	=23	=23
4G\	4d\	4g/	4b-\	4b-\	.
4GG/	4d\	4b-\	4gg\	4gg\	.
4G\	4b-\	4r	4r	4r	.
=24	=24	=24	=24	=24	=24
4D\	4a\	8r	8r	8r	#
.	.	16a/LL	16ff#\LL	16ff#\LL	.
.	.	16b-/JJ	16gg\JJ	16gg\JJ	.
4DD/	4f#\	8cc/L	8aa\L	8aa\L	.
.	.	8a/J	8cc\J	8cc\J	.
4D\	4f#\	8g/L	8b-/L	8b-/L	.
.	.	8f#/J	8a/J	8a/J	.
=25	=25	=25	=25	=25	=25
4G\	4d\	8g/L	8b-\L	8b-\L	.
.	.	16b-/L	16dd\L	16dd\L	.
.	.	16a/JJ	16cc\JJ	16cc\JJ	.
8GG/L	8d\L	8g/L	8b-\L	8b-\L	.
8G/J	8d\J	8b-/J	8gg\J	8gg\J	.
8C/L	8e-\L	8cc/L	8aa\L	8aa\L	6 5
8D/J	8d\J	8a/J	8ff#\J	8ff#\J	.
=26	=26	=26	=26	=26	=26
*	*	*	*	*strophe	*
*	*	*	*	*^	*
*	*	*	*	*S/S	*S/A	*
4G\	4d\	4g/	4gg\	(8.gg\L	(8gg\L	.
.	.	.	.	.	8aa\J)	.
.	.	.	.	16aa\Jk)	.	.
*	*	*	*	*S/fin	*S/fin	*
*	*	*	*	*v	*v	*
*	*	*	*	*S-	*
4F#\	4r	4r	4r	(4.aat\	6
4D\	4r	4r	4r	.	#
.	.	.	.	16gg\LL	.
.	.	.	.	16aa\JJ)	.
=27	=27	=27	=27	=27	=27
4G\	2.r	2.r	2.r	8bb-\L	.
.	.	.	.	(8g\J	.
4r	.	.	.	8b-\L	.
.	.	.	.	8dd\J	.
4r	.	.	.	8gg\L	.
.	.	.	.	8bb-\J)	.
=28	=28	=28	=28	=28	=28
4D\	2.r	2.r	2.r	(8.aa\L	#
.	.	.	.	16bb-\Jk)	.
4G\	.	.	.	(4.bb-T\	.
4GG/	.	.	.	.	.
.	.	.	.	16aa\LL	.
.	.	.	.	16bb-\JJ)	.
=29	=29	=29	=29	=29	=29
2AA/	2.r	2.r	2.r	8ccc\L	6\
.	.	.	.	(8a\J	.
.	.	.	.	8dd\L	.
.	.	.	.	8ff#\J	.
4r	.	.	.	8aa\L	.
.	.	.	.	8ccc\J)	.
=30	=30	=30	=30	=30	=30
4G\	2.r	2.r	2.r	(8.bb-\L	.
.	.	.	.	16ccc\Jk)	.
4A\	.	.	.	(4.cccT\	6
4AA/	.	.	.	.	.
.	.	.	.	16bb-\LL	.
.	.	.	.	16ccc\JJ)	.
=31	=31	=31	=31	=31	=31
2BB-/	2.r	2.r	2.r	4ddd\	6
.	.	.	.	(8ccc\L	.
.	.	.	.	8bb-\J	.
4C/	.	.	.	8aa\L	6
.	.	.	.	8gg\J)	5
=32	=32	=32	=32	=32	=32
2D\	2.r	2.r	2.r	(16ff#\LL	#
.	.	.	.	32dd\L	.
.	.	.	.	32een\J	.
.	.	.	.	16ff#\)	.
.	.	.	.	16dd\JJ	.
.	.	.	.	(16d\LL	.
.	.	.	.	32dd\L	.
.	.	.	.	32ee\J	.
.	.	.	.	16ff#\)	.
.	.	.	.	16dd\JJ	.
4r	.	.	.	(16d\LL	.
.	.	.	.	32dd\L	.
.	.	.	.	32ee\J	.
.	.	.	.	16ff#\)	.
.	.	.	.	16dd\JJ	.
=33	=33	=33	=33	=33	=33
8d\L	2.r	2.r	2.r	4d/	.
8D\	.	.	.	.	.
8d\	.	.	.	4r	.
8D\	.	.	.	.	.
8d\	.	.	.	4r	.
8D\J	.	.	.	.	.
=34	=34	=34	=34	=34	=34
2.G\	2.r	2.r	2.r	(12ff\L	7 n
.	.	.	.	12bbn\)	.
.	.	.	.	12ddd\J	.
.	.	.	.	(12ff\L	.
.	.	.	.	12bb\)	.
.	.	.	.	12ddd\J	.
.	.	.	.	(12ff\L	.
.	.	.	.	12ee-\)	.
.	.	.	.	12dd\J	.
=35	=35	=35	=35	=35	=35
4C/	2.r	2.r	2.r	4ee-\	.
2BB-/	.	.	.	(4.eent\	6 n4
.	.	.	.	16dd\LL	.
.	.	.	.	16ee\JJ)	.
=36	=36	=36	=36	=36	=36
2.AA/	2.r	2.r	2.r	(12ff\L	6
.	.	.	.	12aa\)	.
.	.	.	.	12ccc\J	.
.	.	.	.	(12ff\L	.
.	.	.	.	12aa\)	.
.	.	.	.	12ccc\J	.
.	.	.	.	(12ee-\L	.
.	.	.	.	12dd\)	.
.	.	.	.	12cc\J	.
=37	=37	=37	=37	=37	=37
4BB-/	2.r	2.r	2.r	4dd\	.
2AA/	.	.	.	(4.ddt\	4 2
!!  Beginning of slur corrected; cf. m35 and m39.  
.	.	.	.	16cc\LL	.
.	.	.	.	16dd\JJ)	.
=38	=38	=38	=38	=38	=38
2GG/	2.r	2.r	2.r	(12ee-\L	6
.	.	.	.	12gg\)	.
.	.	.	.	12bb-\J	.
.	.	.	.	(12ee-\L	.
.	.	.	.	12gg\)	.
.	.	.	.	12bb-\J	.
4r	.	.	.	(12dd\L	.
.	.	.	.	12cc\)	.
.	.	.	.	12b-\J	.
=39	=39	=39	=39	=39	=39
4A\	2.r	2.r	2.r	4cc\	6
4B-\	.	.	.	(4.ccT\	.
4c\	.	.	.	.	.
.	.	.	.	16b-\LL	.
.	.	.	.	16cc\JJ)	.
=40	=40	=40	=40	=40	=40
2F#\	2.r	2.r	2.r	(12dd\L	6
.	.	.	.	12ff#\)	.
.	.	.	.	12aa\J	.
.	.	.	.	(12dd\L	.
.	.	.	.	12ff#\)	.
.	.	.	.	12aa\J	.
4D\	.	.	.	(12cc\L	7 #
.	.	.	.	12b-\)	.
.	.	.	.	12a\J	.
=41	=41	=41	=41	=41	=41
2G\	2.r	2.r	2.r	16b-\LL	.
.	.	.	.	16dd\	.
.	.	.	.	16cc\	.
.	.	.	.	16b-\JJ	.
.	.	.	.	16gg\LL	.
.	.	.	.	16dd\	.
.	.	.	.	16cc\	.
.	.	.	.	16b-\JJ	.
4r	.	.	.	16bb-\LL	.
.	.	.	.	16dd\	.
.	.	.	.	16cc\	.
.	.	.	.	16b-\JJ	.
=42	=42	=42	=42	=42	=42
2F#\	2.r	2.r	2.r	16d/LL	6
.	.	.	.	16f#/	.
.	.	.	.	16en/	.
.	.	.	.	16d/JJ	.
.	.	.	.	16a/LL	.
.	.	.	.	16f#/	.
.	.	.	.	16e/	.
.	.	.	.	16d/JJ	.
4r	.	.	.	16dd/LL	.
.	.	.	.	16f#/	.
.	.	.	.	16e/	.
.	.	.	.	16d/JJ	.
=43	=43	=43	=43	=43	=43
2G\	2.r	2.r	2.r	16G/LL	.
.	.	.	.	16B-/	.
.	.	.	.	16A/	.
.	.	.	.	16G/JJ	.
.	.	.	.	16d/LL	.
.	.	.	.	16B-/	.
.	.	.	.	16A/	.
.	.	.	.	16G/JJ	.
4r	.	.	.	16g/LL	.
.	.	.	.	16B-/	.
.	.	.	.	16A/	.
.	.	.	.	16G/JJ	.
=44	=44	=44	=44	=44	=44
2E-\	2.r	2.r	2.r	16c/LL	6
.	.	.	.	16e-/	.
.	.	.	.	16d/	.
.	.	.	.	16c/JJ	.
.	.	.	.	16g/LL	.
.	.	.	.	16e-/	.
.	.	.	.	16d/	.
.	.	.	.	16c/JJ	.
4r	.	.	.	16cc/LL	.
.	.	.	.	16e-/	.
.	.	.	.	16d/	.
.	.	.	.	16c/JJ	.
=45	=45	=45	=45	=45	=45
2FF#/	2.r	2.r	2.r	16d/LL	6 5
.	.	.	.	16f#/	.
.	.	.	.	16en/	.
.	.	.	.	16d/JJ	.
.	.	.	.	16a/LL	.
.	.	.	.	16f#/	.
.	.	.	.	16e/	.
.	.	.	.	16d/JJ	.
4r	.	.	.	16dd/LL	.
.	.	.	.	16f#/	.
.	.	.	.	16e/	.
.	.	.	.	16d/JJ	.
=46	=46	=46	=46	=46	=46
2GG/	2.r	2.r	2.r	16g/LL	.
.	.	.	.	16b-/	.
.	.	.	.	16a/	.
.	.	.	.	16g/JJ	.
.	.	.	.	16dd/LL	.
.	.	.	.	16b-/	.
.	.	.	.	16a/	.
.	.	.	.	16g/JJ	.
4r	.	.	.	16gg/LL	.
.	.	.	.	16b-/	.
.	.	.	.	16a/	.
.	.	.	.	16g/JJ	.
=47	=47	=47	=47	=47	=47
2C#/	2.r	2.r	2.r	16a\LL	6 n
.	.	.	.	16cc#\	.
.	.	.	.	16bn\	.
.	.	.	.	16a\JJ	.
.	.	.	.	16een\LL	.
.	.	.	.	16cc#\	.
.	.	.	.	16b\	.
.	.	.	.	16a\JJ	.
4r	.	.	.	16aa\LL	.
.	.	.	.	16cc#\	.
.	.	.	.	16b\	.
.	.	.	.	16a\JJ	.
=48	=48	=48	=48	=48	=48
! Tasto solo	!	!	!	!	!
[2.AA/	2.r	2.r	2.r	16dd/LL	.
.	.	.	.	16a/	.
.	.	.	.	16d/	.
.	.	.	.	16a/JJ	.
.	.	.	.	16dd/LL	.
.	.	.	.	16a/	.
.	.	.	.	16d/	.
.	.	.	.	16a/JJ	.
.	.	.	.	16dd/LL	.
.	.	.	.	16a/	.
.	.	.	.	16d/	.
.	.	.	.	16a/JJ	.
=49	=49	=49	=49	=49	=49
2.AA_/	2.r	2.r	2.r	16dd/LL	.
.	.	.	.	16a/	.
.	.	.	.	16f/	.
.	.	.	.	16a/JJ	.
.	.	.	.	16dd/LL	.
.	.	.	.	16a/	.
.	.	.	.	16f/	.
.	.	.	.	16a/JJ	.
.	.	.	.	16dd/LL	.
.	.	.	.	16a/	.
.	.	.	.	16f/	.
.	.	.	.	16a/JJ	.
=50	=50	=50	=50	=50	=50
2.AA_/	2.r	2.r	2.r	16dd/LL	.
.	.	.	.	16a/	.
.	.	.	.	16en/	.
.	.	.	.	16a/JJ	.
.	.	.	.	16dd/LL	.
.	.	.	.	16a/	.
.	.	.	.	16e/	.
.	.	.	.	16a/JJ	.
.	.	.	.	16dd/LL	.
.	.	.	.	16a/	.
.	.	.	.	16e/	.
.	.	.	.	16a/JJ	.
=51	=51	=51	=51	=51	=51
2.AA_/	2.r	2.r	2.r	16cc#/LL	.
.	.	.	.	16a/	.
.	.	.	.	16en/	.
.	.	.	.	16a/JJ	.
.	.	.	.	16cc#/LL	.
.	.	.	.	16a/	.
.	.	.	.	16e/	.
.	.	.	.	16a/JJ	.
.	.	.	.	16cc#/LL	.
.	.	.	.	16a/	.
.	.	.	.	16e/	.
.	.	.	.	16a/JJ	.
=52	=52	=52	=52	=52	=52
2.AA_/	2.r	2.r	2.r	16dd/LL	.
.	.	.	.	16a/	.
.	.	.	.	16d/	.
.	.	.	.	16a/JJ	.
.	.	.	.	16dd/LL	.
.	.	.	.	16a/	.
.	.	.	.	16d/	.
.	.	.	.	16a/JJ	.
.	.	.	.	16dd/LL	.
.	.	.	.	16a/	.
.	.	.	.	16d/	.
.	.	.	.	16a/JJ	.
=53	=53	=53	=53	=53	=53
2.AA_/	2.r	2.r	2.r	16cc/LL	.
.	.	.	.	16a/	.
.	.	.	.	16d/	.
.	.	.	.	16a/JJ	.
.	.	.	.	16cc/LL	.
.	.	.	.	16a/	.
.	.	.	.	16d/	.
.	.	.	.	16a/JJ	.
.	.	.	.	16cc/LL	.
.	.	.	.	16a/	.
.	.	.	.	16d/	.
.	.	.	.	16a/JJ	.
=54	=54	=54	=54	=54	=54
2.AA_/	2.r	2.r	2.r	16b-/LL	.
.	.	.	.	16a/	.
.	.	.	.	16d/	.
.	.	.	.	16a/JJ	.
.	.	.	.	16b-/LL	.
.	.	.	.	16a/	.
.	.	.	.	16d/	.
.	.	.	.	16a/JJ	.
.	.	.	.	16b-/LL	.
.	.	.	.	16a/	.
.	.	.	.	16d/	.
.	.	.	.	16a/JJ	.
=55	=55	=55	=55	=55	=55
2.AA_/	2.r	2.r	2.r	16b-/LL	.
.	.	.	.	16a/	.
.	.	.	.	16g/	.
.	.	.	.	16a/JJ	.
.	.	.	.	16b-/LL	.
.	.	.	.	16a/	.
.	.	.	.	16g/	.
.	.	.	.	16a/JJ	.
.	.	.	.	16b-/LL	.
.	.	.	.	16a/	.
.	.	.	.	16g/	.
.	.	.	.	16a/JJ	.
=56	=56	=56	=56	=56	=56
2.AA_/	2.r	2.r	2.r	16b-/LL	.
.	.	.	.	16a/	.
.	.	.	.	16c#/	.
.	.	.	.	16a/JJ	.
.	.	.	.	16b-/LL	.
.	.	.	.	16a/	.
.	.	.	.	16c#/	.
.	.	.	.	16a/JJ	.
.	.	.	.	16b-/LL	.
.	.	.	.	16a/	.
.	.	.	.	16c#/	.
.	.	.	.	16a/JJ	.
=57	=57	=57	=57	=57	=57
2.AA_/	2.r	2.r	2.r	16a/LL	.
.	.	.	.	16a/	.
.	.	.	.	16c#/	.
.	.	.	.	16a/JJ	.
.	.	.	.	16a/LL	.
.	.	.	.	16a/	.
.	.	.	.	16c#/	.
.	.	.	.	16a/JJ	.
.	.	.	.	16a/LL	.
.	.	.	.	16a/	.
.	.	.	.	16c#/	.
.	.	.	.	16a/JJ	.
=58	=58	=58	=58	=58	=58
2.AA_/	2.r	2.r	2.r	16een/LL	.
.	.	.	.	16a/	.
.	.	.	.	16c#/	.
.	.	.	.	16a/JJ	.
.	.	.	.	16ee/LL	.
.	.	.	.	16a/	.
.	.	.	.	16c#/	.
.	.	.	.	16a/JJ	.
.	.	.	.	16ee/LL	.
.	.	.	.	16a/	.
.	.	.	.	16c#/	.
.	.	.	.	16a/JJ	.
=59	=59	=59	=59	=59	=59
2.AA_/	2.r	2.r	2.r	16een/LL	.
.	.	.	.	16a/	.
.	.	.	.	16c#/	.
.	.	.	.	16a/JJ	.
.	.	.	.	16ee/LL	.
.	.	.	.	16a/	.
.	.	.	.	16c#/	.
.	.	.	.	16a/JJ	.
.	.	.	.	16ee/LL	.
.	.	.	.	16a/	.
.	.	.	.	16c#/	.
.	.	.	.	16a/JJ	.
=60	=60	=60	=60	=60	=60
2.AA_/	2.r	2.r	2.r	16een/LL	.
.	.	.	.	16a/	.
.	.	.	.	16f/	.
.	.	.	.	16a/JJ	.
.	.	.	.	16ee/LL	.
.	.	.	.	16a/	.
.	.	.	.	16f/	.
.	.	.	.	16a/JJ	.
.	.	.	.	16ee/LL	.
.	.	.	.	16a/	.
.	.	.	.	16f/	.
.	.	.	.	16a/JJ	.
=61	=61	=61	=61	=61	=61
2.AA_/	2.r	2.r	2.r	16dd/LL	.
.	.	.	.	16a/	.
.	.	.	.	16f/	.
.	.	.	.	16a/JJ	.
.	.	.	.	16dd/LL	.
.	.	.	.	16a/	.
.	.	.	.	16f/	.
.	.	.	.	16a/JJ	.
.	.	.	.	16dd/LL	.
.	.	.	.	16a/	.
.	.	.	.	16f/	.
.	.	.	.	16a/JJ	.
=62	=62	=62	=62	=62	=62
2.AA_/	2.r	2.r	2.r	16dd/LL	.
.	.	.	.	16a/	.
.	.	.	.	16en/	.
.	.	.	.	16a/JJ	.
.	.	.	.	16dd/LL	.
.	.	.	.	16a/	.
.	.	.	.	16e/	.
.	.	.	.	16a/JJ	.
.	.	.	.	16dd/LL	.
.	.	.	.	16a/	.
.	.	.	.	16e/	.
.	.	.	.	16a/JJ	.
=63	=63	=63	=63	=63	=63
2.AA_/	2.r	2.r	2.r	16cc/LL	.
.	.	.	.	16a/	.
.	.	.	.	16a/	.
.	.	.	.	16a/JJ	.
.	.	.	.	16cc/LL	.
.	.	.	.	16a/	.
.	.	.	.	16a/	.
.	.	.	.	16a/JJ	.
.	.	.	.	16cc/LL	.
.	.	.	.	16a/	.
.	.	.	.	16a/	.
.	.	.	.	16a/JJ	.
=64	=64	=64	=64	=64	=64
2.AA_/	2.r	2.r	2.r	16cc/LL	.
.	.	.	.	16a/	.
.	.	.	.	16d#/	.
.	.	.	.	16a/JJ	.
.	.	.	.	16cc/LL	.
.	.	.	.	16a/	.
.	.	.	.	16d#/	.
.	.	.	.	16a/JJ	.
.	.	.	.	16cc/LL	.
.	.	.	.	16a/	.
.	.	.	.	16d#/	.
.	.	.	.	16a/JJ	.
=65	=65	=65	=65	=65	=65
2.AA_/	2.r	2.r	2.r	16bn/LL	.
.	.	.	.	16a/	.
*	*	*	*	*strophe	*
*	*	*	*	*^	*
*	*	*	*	*S/S	*S/A	*
.	.	.	.	16d#/	16d/	.
*	*	*	*	*S/fin	*S/fin	*
*	*	*	*	*v	*v	*
*	*	*	*	*S-	*
.	.	.	.	16a/JJ	.
.	.	.	.	16b/LL	.
.	.	.	.	16a/	.
*	*	*	*	*strophe	*
*	*	*	*	*^	*
*	*	*	*	*S/S	*S/A	*
.	.	.	.	16d#/	16d/	.
*	*	*	*	*S/fin	*S/fin	*
*	*	*	*	*v	*v	*
*	*	*	*	*S-	*
.	.	.	.	16a/JJ	.
.	.	.	.	16b/LL	.
.	.	.	.	16a/	.
*	*	*	*	*strophe	*
*	*	*	*	*^	*
*	*	*	*	*S/S	*S/A	*
.	.	.	.	16d#/	16d/	.
*	*	*	*	*S/fin	*S/fin	*
*	*	*	*	*v	*v	*
*	*	*	*	*S-	*
.	.	.	.	16a/JJ	.
=66	=66	=66	=66	=66	=66
2.AA_/	2.r	2.r	2.r	16een/LL	.
.	.	.	.	16a/	.
.	.	.	.	16g/	.
.	.	.	.	16a/JJ	.
.	.	.	.	16ee/LL	.
.	.	.	.	16a/	.
.	.	.	.	16g/	.
.	.	.	.	16a/JJ	.
.	.	.	.	16ee/LL	.
.	.	.	.	16a/	.
.	.	.	.	16g/	.
.	.	.	.	16a/JJ	.
=67	=67	=67	=67	=67	=67
2.AA_/	2.r	2.r	2.r	16een/LL	.
.	.	.	.	16a/	.
.	.	.	.	16f/	.
.	.	.	.	16a/JJ	.
.	.	.	.	16ee/LL	.
.	.	.	.	16a/	.
.	.	.	.	16f/	.
.	.	.	.	16a/JJ	.
.	.	.	.	16ee/LL	.
.	.	.	.	16a/	.
.	.	.	.	16f/	.
.	.	.	.	16a/JJ	.
=68	=68	=68	=68	=68	=68
2.AA_/	2.r	2.r	2.r	16dd/LL	.
.	.	.	.	16a/	.
.	.	.	.	16f/	.
.	.	.	.	16a/JJ	.
.	.	.	.	16dd/LL	.
.	.	.	.	16a/	.
.	.	.	.	16f/	.
.	.	.	.	16a/JJ	.
.	.	.	.	16dd/LL	.
.	.	.	.	16a/	.
.	.	.	.	16f/	.
.	.	.	.	16a/JJ	.
=69	=69	=69	=69	=69	=69
2.AA_/	2.r	2.r	2.r	16dd/LL	.
.	.	.	.	16a/	.
.	.	.	.	16en/	.
.	.	.	.	16a/JJ	.
.	.	.	.	16dd/LL	.
.	.	.	.	16a/	.
.	.	.	.	16e/	.
.	.	.	.	16a/JJ	.
.	.	.	.	16dd/LL	.
.	.	.	.	16a/	.
.	.	.	.	16e/	.
.	.	.	.	16a/JJ	.
=70	=70	=70	=70	=70	=70
2.AA_/	2.r	2.r	2.r	16cc#/LL	.
.	.	.	.	16a/	.
.	.	.	.	16en/	.
.	.	.	.	16a/JJ	.
.	.	.	.	16cc#/LL	.
.	.	.	.	16a/	.
.	.	.	.	16e/	.
.	.	.	.	16a/JJ	.
.	.	.	.	16dd/LL	.
.	.	.	.	16a/	.
.	.	.	.	16f/	.
.	.	.	.	16a/JJ	.
=71	=71	=71	=71	=71	=71
2.AA_/	2.r	2.r	2.r	16een/LL	.
.	.	.	.	16a/	.
.	.	.	.	16g/	.
.	.	.	.	16a/JJ	.
.	.	.	.	16ee/LL	.
.	.	.	.	16a/	.
.	.	.	.	16g/	.
.	.	.	.	16a/JJ	.
.	.	.	.	16dd/LL	.
.	.	.	.	16a/	.
.	.	.	.	16f/	.
.	.	.	.	16a/JJ	.
=72	=72	=72	=72	=72	=72
2.AA_/	2.r	2.r	2.r	16cc#/LL	.
.	.	.	.	16a/	.
.	.	.	.	16en/	.
.	.	.	.	16a/JJ	.
.	.	.	.	16cc#/LL	.
.	.	.	.	16a/	.
.	.	.	.	16e/	.
.	.	.	.	16a/JJ	.
.	.	.	.	16dd/LL	.
.	.	.	.	16a/	.
.	.	.	.	16f/	.
.	.	.	.	16a/JJ	.
=73	=73	=73	=73	=73	=73
2.AA_/	2.r	2.r	2.r	16een/LL	.
.	.	.	.	16a/	.
.	.	.	.	16g/	.
.	.	.	.	16a/JJ	.
.	.	.	.	16ee/LL	.
.	.	.	.	16a/	.
.	.	.	.	16g/	.
.	.	.	.	16a/JJ	.
.	.	.	.	16dd/LL	.
.	.	.	.	16a/	.
.	.	.	.	16f/	.
.	.	.	.	16a/JJ	.
=74	=74	=74	=74	=74	=74
2.AA_/	2.r	2.r	2.r	16cc#/LL	.
.	.	.	.	16a/	.
.	.	.	.	16en/	.
.	.	.	.	16a/JJ	.
.	.	.	.	16cc#/LL	.
.	.	.	.	16a/	.
.	.	.	.	16e/	.
.	.	.	.	16a/JJ	.
.	.	.	.	16dd/LL	.
.	.	.	.	16a/	.
.	.	.	.	16f/	.
.	.	.	.	16a/JJ	.
=75	=75	=75	=75	=75	=75
2.AA/]	2.r	2.r	2.r	16dd/LL	.
.	.	.	.	16a/	.
.	.	.	.	16en/	.
.	.	.	.	16a/JJ	.
.	.	.	.	16dd/LL	.
.	.	.	.	16a/	.
.	.	.	.	16e/	.
.	.	.	.	16a/JJ	.
.	.	.	.	16cc#/LL	.
.	.	.	.	16a/	.
.	.	.	.	16e/	.
.	.	.	.	16a/JJ	.
=76	=76	=76	=76	=76	=76
*	*	*	*	*^	*
4D\	4A/	8r	8r	8f\L	4a/ 4dd/	.
.	.	8a\L	8dd\L	8dd\	.	.
*	*	*	*	*v	*v	*
4D\	4A/	8dd\	8ff\	8ff\	.
.	.	8a\	8dd\	8dd\	.
4D\	4A/	8dd\	8ff\	8ff\	.
.	.	8a\J	8dd\J	8dd\J	.
=77	=77	=77	=77	=77	=77
8A\L	8A/L	(4g/	(4cc#\	(4cc#\	#
8AA\	8c#/	.	.	.	.
8A\	8A/	4cc#\)	4een\)	4een\)	.
8AA\	8c#/	.	.	.	.
8A\	8A/	4en/	4g/	4g/	.
8AA\J	8c#/J	.	.	.	.
=78	=78	=78	=78	=78	=78
4D\	4A/	8d/L	8f\L	8f\L	.
.	.	8a/	8dd\	8dd\	.
4D\	4A/	8dd/	8ff\	8ff\	.
.	.	8a/	8dd\	8dd\	.
4D\	4A/	8dd/	8ff\	8ff\	.
.	.	8a/J	8dd\J	8dd\J	.
=79	=79	=79	=79	=79	=79
8A\L	8A/L	(4g/	(4cc#\	(4cc#\	#
8AA\	8c#/	.	.	.	.
8A\	8A/	4cc#\)	4een\)	4een\)	.
8AA\	8c#/	.	.	.	.
8A\	8A/	4en/	4g/	4g/	.
8AA\J	8c#/J	.	.	.	.
=80	=80	=80	=80	=80	=80
4D\	4A/	8d\L	8f\L	8f\L	.
.	.	8dd\	8ff\	8ff\	.
4D\	4A/	8ff\	8aa\	8aa\	.
.	.	8dd\	8ff\	8ff\	.
4D\	4A/	8ff\	8aa\	8aa\	.
.	.	8dd\J	8ff\J	8ff\J	.
=81	=81	=81	=81	=81	=81
8A\L	8A/L	4cc#\	4een\	4een\	#
8AA\	8c#/	.	.	.	.
8A\	8A/	4r	4r	4r	.
8AA\	8c#/	.	.	.	.
8A\	8A/	4r	4r	4r	.
8AA\J	8c#/J	.	.	.	.
=82	=82	=82	=82	=82	=82
4D\	4A/	8ccn\L	8ff#\L	8ff#\L	7 #
.	.	8ff#\	8aa\	8aa\	.
4D\	4a\	8cc\	8ff#\	8ff#\	.
.	.	8ff#\	8aa\	8aa\	.
4D\	4f#\	8cc\	8cc\	8cc\	.
.	.	8a\J	8aa\J	8aa\J	.
=83	=83	=83	=83	=83	=83
8G/L	4d\	(4g/	(4bn\	(4bn\	n
8GG/	.	.	.	.	.
8G/	4d\	4bn\)	4dd\)	4dd\)	.
8GG/	.	.	.	.	.
8G/	4d\	4dd\	4gg\	4gg\	.
8GG/J	.	.	.	.	.
=84	=84	=84	=84	=84	=84
4C/	4en\	8b-\L	8een\L	8een\L	7
.	.	8een\	8gg\	8gg\	.
4C/	4g\	8b-\	8ee\	8ee\	.
.	.	8ee\	8gg\	8gg\	.
4C/	4c\	8b-\	8b-\	8b-\	.
.	.	8g\J	8gg\J	8gg\J	.
=85	=85	=85	=85	=85	=85
8F/L	4c\	(4f/	(4a/	(4a/	.
8FF/	.	.	.	.	.
8F/	4c\	4a/)	4cc\)	4cc\)	.
8FF/	.	.	.	.	.
8F/	4A/	4cc\	4ff\	4ff\	.
8FF/J	.	.	.	.	.
=86	=86	=86	=86	=86	=86
4F\	4A/	8a\L	8dd\L	8dd\L	6
.	.	8dd\	8ff\	8ff\	.
4F\	4f\	8a\	8dd\	8dd\	.
.	.	8dd\	8ff\	8ff\	.
4F\	4f\	8f\	8a\	8a\	.
.	.	8dd\J	8ff\J	8ff\J	.
=87	=87	=87	=87	=87	=87
8En/L	4c#\	(4en/	(4g/	(4g/	6\
8EEn/	.	.	.	.	.
8E/	4c#\	4g/)	4b-\)	4b-\)	.
8EE/	.	.	.	.	.
8E/	4c#\	4cc#\	4een\	4een\	.
8EE/J	.	.	.	.	.
=88	=88	=88	=88	=88	=88
4AA/	4en\	8a/L	8cc#\L	8cc#\L	#
.	.	8cc#/	8een\	8een\	.
4AA/	4e\	8a/	8cc#\	8cc#\	.
.	.	8cc#/	8ee\	8ee\	.
4AA/	8e\L	8en/	8g\	8g\	.
.	8a\J	8cc#/J	8ee\J	8ee\J	.
=89	=89	=89	=89	=89	=89
8D\L	8a\L	4dd\	4ff\	4ff\	.
8D\	8a\	.	.	.	.
8D\	8a\	2ddd\	2ddd\	2ddd\	.
8D\	8a\	.	.	.	.
8D\	8a\	.	.	.	.
8D\J	8a\J	.	.	.	.
=90	=90	=90	=90	=90	=90
8En\L	8g\L	4gg\	4gg\	4gg\	7
8E\	8g\	.	.	.	.
8E\	8g\	2ddd\	2ddd\	2ddd\	.
8E\	8g\	.	.	.	.
8E\	8g\	.	.	.	.
8E\J	8g\J	.	.	.	.
=91	=91	=91	=91	=91	=91
8F\L	8f\L	4aa\	4aa\	4aa\	6
8F\	8f\	.	.	.	.
8F\	8f\	2ddd\	2ddd\	2ddd\	.
8F\	8f\	.	.	.	.
8F\	8f\	.	.	.	.
8F\J	8f\J	.	.	.	.
=92	=92	=92	=92	=92	=92
8G\L	8d\L	4bb-\	4bb-\	4bb-\	.
8G\	8d\	.	.	.	.
8G\	8d\	2ddd\	2ddd\	2ddd\	.
8G\	8d\	.	.	.	.
8G\	8d\	.	.	.	.
8G\J	8d\J	.	.	.	.
=93	=93	=93	=93	=93	=93
4D\	4d\	8ff\L	8ff\L	8ff\L	.
.	.	8aa\	8aa\	8aa\	.
4D\	4d\	8ddd\	8ddd\	8ddd\	.
.	.	8aa\	8aa\	8aa\	.
4D\	4a\	8ff\	8ff\	8ff\	.
.	.	8ddd\J	8ddd\J	8ddd\J	.
=94	=94	=94	=94	=94	=94
4A\	4a\	8een\L	8een\L	8een\L	n5 4
.	.	8aa\	8aa\	8aa\	.
4AA/	4a\	8ddd\	8ddd\	8ddd\	4 #
.	.	8aa\	8aa\	8aa\	.
4AA/	4a\	8ee\	8ee\	8ee\	n5 #
.	.	8ccc#\J	8ccc#\J	8ccc#\J	.
=95	=95	=95	=95	=95	=95
4D\	4f\	4ddd\	4ddd\	8ddd\L	.
.	.	.	.	16ccc\L	.
.	.	.	.	16bb-\JJ	.
4r	4r	4r	4r	16aa\LL	.
.	.	.	.	16bb-\	.
.	.	.	.	16aa\	.
.	.	.	.	16gg\JJ	.
4r	4r	4r	4r	16ff\LL	.
.	.	.	.	16gg\	.
.	.	.	.	16ff\	.
.	.	.	.	16een\JJ	.
=96	=96	=96	=96	=96	=96
4D\	2.r	2.r	2.r	16dd\LL	.
.	.	.	.	16een\	.
.	.	.	.	16dd\	.
.	.	.	.	16cc\JJ	.
4r	.	.	.	16b-\LL	.
.	.	.	.	16cc\	.
.	.	.	.	16b-\	.
.	.	.	.	16a\JJ	.
4r	.	.	.	16g/LL	.
.	.	.	.	16a/	.
.	.	.	.	16g/	.
.	.	.	.	16f/JJ	.
=97	=97	=97	=97	=97	=97
4AA/	2.r	2.r	2.r	16en/LL	#
.	.	.	.	16f/	.
.	.	.	.	16e/	.
.	.	.	.	16d/JJ	.
4r	.	.	.	8c#/L	.
.	.	.	.	8b-/J	.
4r	.	.	.	8a/L	.
.	.	.	.	8g/J	.
=98	=98	=98	=98	=98	=98
8D\L	2.r	2.r	2.r	8f/L	.
8En\	.	.	.	8en/J	.
8F\	.	.	.	4d/	6
8G\	.	.	.	.	.
8A\	.	.	.	4r	.
8F\J	.	.	.	.	.
=99	=99	=99	=99	=99	=99
4D\	2.r	2.r	2.r	8dd\L	.
.	.	.	.	8ff\	.
8r	.	.	.	8aa\	.
8F\	.	.	.	8f\	.
8En\L	.	.	.	8en\	.
8D\J	.	.	.	8d\J	.
=100	=100	=100	=100	=100	=100
4En\	2.r	2.r	2.r	8en\L	.
.	.	.	.	8gg\	.
8r	.	.	.	8bb-\	.
8G\	.	.	.	8g\	.
8F\L	.	.	.	8f\	.
8E\J	.	.	.	8e\J	.
=101	=101	=101	=101	=101	=101
4F\	2.r	2.r	2.r	8f\L	.
.	.	.	.	8aa\	.
8r	.	.	.	8ccc\	.
8A\	.	.	.	8a\	.
8G\L	.	.	.	8g\	.
8F\J	.	.	.	8f\J	.
=102	=102	=102	=102	=102	=102
4G\	2.r	2.r	2.r	8g\L	.
.	.	.	.	8bb-\	.
8r	.	.	.	8ddd\	.
8B-\	.	.	.	8b-\	.
8A\L	.	.	.	8a\	.
8G\J	.	.	.	8g\J	.
=103	=103	=103	=103	=103	=103
4A\	2.r	2.r	2.r	8a\L	#
.	.	.	.	8ccc#\	.
8r	.	.	.	8eeen\	.
8c#\	.	.	.	8cc#\	.
8Bn\L	.	.	.	8bn\	.
8A\J	.	.	.	8a\J	.
=104	=104	=104	=104	=104	=104
*	*	*	*	*strophe	*
*	*	*	*	*^	*
*	*	*	*	*S/S	*S/A	*
4Bn\	2.r	2.r	2.r	8bn\L	8b-\L	.
*	*	*	*	*S/fin	*S/fin	*
*	*	*	*	*v	*v	*
*	*	*	*	*S-	*
.	.	.	.	8ddd\	.
4r	.	.	.	8eeen\	.
.	.	.	.	8fff\	.
4G#\	.	.	.	8eee\	n6 n
.	.	.	.	8ddd\J	.
=105	=105	=105	=105	=105	=105
8A\L	2.r	2.r	2.r	4dddT\	4
8AA\	.	.	.	.	.
8A\	.	.	.	4ccc#\	#
8AA\	.	.	.	.	.
8A\	.	.	.	4r	.
8AA\J	.	.	.	.	.
=106	=106	=106	=106	=106	=106
4AA/	2.r	4a/	4a/	(16ccc#\LL	#
.	.	.	.	16aa\	.
.	.	.	.	16gg\	.
.	.	.	.	16aa\JJ)	.
4r	.	4a/	4a/	(16ccc#\LL	.
.	.	.	.	16aa\	.
.	.	.	.	16gg\	.
.	.	.	.	16aa\JJ)	.
4r	.	4g/	4g/	(16ccc#\LL	.
.	.	.	.	16aa\	.
.	.	.	.	16gg\	.
.	.	.	.	16aa\JJ)	.
=107	=107	=107	=107	=107	=107
2.r	2.r	4f/	4f/	(16ddd\LL	.
.	.	.	.	16aa\	.
.	.	.	.	16gg\	.
.	.	.	.	16aa\JJ)	.
.	.	4f/	4f/	(16ddd\LL	.
.	.	.	.	16aa\	.
.	.	.	.	16gg\	.
.	.	.	.	16aa\JJ)	.
.	.	4f/	4f/	(16ddd\LL	.
.	.	.	.	16aa\	.
.	.	.	.	16gg\	.
.	.	.	.	16aa\JJ)	.
=108	=108	=108	=108	=108	=108
2.r	2.r	4g/	4g/	(16bb-\LL	.
.	.	.	.	16gg\	.
.	.	.	.	16ff\	.
.	.	.	.	16gg\JJ)	.
.	.	4g/	4g/	(16bb-\LL	.
.	.	.	.	16gg\	.
.	.	.	.	16ff\	.
.	.	.	.	16gg\JJ)	.
.	.	4f/	4f/	(16bb-\LL	.
.	.	.	.	16gg\	.
.	.	.	.	16ff\	.
.	.	.	.	16gg\JJ)	.
=109	=109	=109	=109	=109	=109
2.r	2.r	4en/	4en/	(16ccc\LL	.
.	.	.	.	16gg\	.
.	.	.	.	16ff\	.
.	.	.	.	16gg\JJ)	.
.	.	4e/	4e/	(16ccc\LL	.
.	.	.	.	16gg\	.
.	.	.	.	16ff\	.
.	.	.	.	16gg\JJ)	.
.	.	4e/	4e/	(16ccc\LL	.
.	.	.	.	16gg\	.
.	.	.	.	16ff\	.
.	.	.	.	16gg\JJ)	.
=110	=110	=110	=110	=110	=110
2.r	2.r	4f/	4f/	(16aa\LL	.
.	.	.	.	16ff\	.
.	.	.	.	16een\	.
.	.	.	.	16ff\JJ)	.
.	.	4f/	4f/	(16aa\LL	.
.	.	.	.	16ff\	.
.	.	.	.	16ee\	.
.	.	.	.	16ff\JJ)	.
.	.	4en/	4en/	(16aa\LL	.
.	.	.	.	16ff\	.
.	.	.	.	16ee\	.
.	.	.	.	16ff\JJ)	.
=111	=111	=111	=111	=111	=111
2.r	2.r	4d/	4d/	(16bb-\LL	.
.	.	.	.	16ff\	.
.	.	.	.	16een\	.
.	.	.	.	16ff\JJ)	.
.	.	4d/	4d/	(16bb-\LL	.
.	.	.	.	16ff\	.
.	.	.	.	16ee\	.
.	.	.	.	16ff\JJ)	.
.	.	4d/	4d/	(16bb-\LL	.
.	.	.	.	16ff\	.
.	.	.	.	16ee\	.
.	.	.	.	16ff\JJ)	.
=112	=112	=112	=112	=112	=112
2.r	2.r	4en/	4en/	(16gg\LL	.
.	.	.	.	16een\	.
.	.	.	.	16dd\	.
.	.	.	.	16ee\JJ)	.
.	.	4e/	4e/	(16gg\LL	.
.	.	.	.	16ee\	.
.	.	.	.	16dd\	.
.	.	.	.	16ee\JJ)	.
.	.	4d/	4d/	(16gg\LL	.
.	.	.	.	16ee\	.
.	.	.	.	16dd\	.
.	.	.	.	16ee\JJ)	.
=113	=113	=113	=113	=113	=113
2.r	2.r	4c/	4c/	(16aa\LL	.
.	.	.	.	16een\	.
.	.	.	.	16dd\	.
.	.	.	.	16ee\JJ)	.
.	.	4c/	4c/	(16aa\LL	.
.	.	.	.	16ee\	.
.	.	.	.	16dd\	.
.	.	.	.	16ee\JJ)	.
.	.	4c/	4c/	(16aa\LL	.
.	.	.	.	16ee\	.
.	.	.	.	16dd\	.
.	.	.	.	16ee\JJ)	.
=114	=114	=114	=114	=114	=114
2.r	2.r	4d/	4d/	(16ff\LL	.
.	.	.	.	16dd\	.
.	.	.	.	16cc\	.
.	.	.	.	16dd\JJ)	.
.	.	4d/	4d/	(16ff\LL	.
.	.	.	.	16dd\	.
.	.	.	.	16cc\	.
.	.	.	.	16dd\JJ)	.
.	.	4c/	4c/	(16ff\LL	.
.	.	.	.	16dd\	.
.	.	.	.	16cc\	.
.	.	.	.	16dd\JJ)	.
=115	=115	=115	=115	=115	=115
2.r	2.r	4B-/	4B-/	(16gg\LL	.
.	.	.	.	16dd\	.
.	.	.	.	16cc\	.
.	.	.	.	16dd\JJ)	.
.	.	4B-/	4B-/	(16gg\LL	.
.	.	.	.	16dd\	.
.	.	.	.	16cc\	.
.	.	.	.	16dd\JJ)	.
.	.	4B-/	4B-/	(16gg\LL	.
.	.	.	.	16dd\	.
.	.	.	.	16cc\	.
.	.	.	.	16dd\JJ)	.
=116	=116	=116	=116	=116	=116
2.r	2.r	4c/	4c/	(8een\L	.
.	.	.	.	8bb-\	.
.	.	8r	8r	8aa\	.
.	.	8cc\	8cc\	8gg\)	.
.	.	8a/L	8a/L	8ccc\	.
.	.	8f/J	8f/J	8ff\J	.
=117	=117	=117	=117	=117	=117
2.r	2.r	4c/	4c/	(8een\L	.
.	.	.	.	8bb-\	.
.	.	8r	8r	8aa\	.
.	.	8cc\	8cc\	8gg\)	.
.	.	8a/L	8a/L	8ccc\	.
.	.	8f/J	8f/J	8ff\J	.
=118	=118	=118	=118	=118	=118
2.r	2.r	2c/	2c/	(8een\L	.
.	.	.	.	8cc\)	.
.	.	.	.	(8gg\	.
.	.	.	.	8ee\)	.
.	.	4c/	4c/	(8bb-\	.
.	.	.	.	8gg\J)	.
=119	=119	=119	=119	=119	=119
2.r	2.r	4f/	4f/	8aa\L	.
.	.	.	.	8ff\J	.
.	.	4cc\	4cc\	4.ggT\	.
.	.	4c/	4c/	.	.
.	.	.	.	8ff\	.
=120	=120	=120	=120	=120	=120
2.r	2.r	2f/	2f/	[4ee-\	.
.	.	.	.	(12ee-\L]	.
.	.	.	.	12dd\	.
.	.	.	.	12cc\J)	.
.	.	4b-\	4b-\	(12dd\L	.
.	.	.	.	12cc\	.
.	.	.	.	12b-\J)	.
=121	=121	=121	=121	=121	=121
2.r	2.r	8d/L	8d/L	8bb-\L	.
.	.	8B-/J	8B-/J	8b-\J	.
.	.	4f/	4f/	2ccT\	.
.	.	4f/	4f/	.	.
=122	=122	=122	=122	=122	=122
4BB-/	4f\	8b-\L	8b-\L	8b-\L	.
.	.	8b-\	8dd\	8dd\	.
4BB-/	4f\	8dd\	8ff\	8ff\	.
.	.	8b-\	8dd\	8dd\	.
4BB-/	4f\	8dd\	8ff\	8ff\	.
.	.	8b-\J	8dd\J	8dd\J	.
=123	=123	=123	=123	=123	=123
8F/L	4f\	(4a/	(4cc\	(4cc\	.
8FF/	.	.	.	.	.
8F/	4f\	4cc\)	4ff\)	4ff\)	.
8FF/	.	.	.	.	.
8F/	4f\	4f/	4a/	4a/	.
8FF/J	.	.	.	.	.
=124	=124	=124	=124	=124	=124
4BB-/	4f\	8d\L	8b-\L	8b-\L	.
.	.	8b-\	8dd\	8dd\	.
4BB-/	4f\	8dd\	8ff\	8ff\	.
.	.	8b-\	8dd\	8dd\	.
4BB-/	4f\	8dd\	8ff\	8ff\	.
.	.	8b-\J	8dd\J	8dd\J	.
=125	=125	=125	=125	=125	=125
8F/L	4f\	(4a/	(4cc\	(4cc\	.
8FF/	.	.	.	.	.
8F/	4f\	4cc\)	4ff\)	4ff\)	.
8FF/	.	.	.	.	.
8F/	4f\	4f/	4a/	4a/	.
8FF/J	.	.	.	.	.
=126	=126	=126	=126	=126	=126
4BB-/	4f\	8d\L	8b-\L	8b-\L	6
.	.	8b-\	8dd\	8dd\	.
4BB-/	4f\	8dd\	8gg\	8gg\	.
.	.	8b-\	8dd\	8dd\	.
4C/	4e-\	8gg\	8bb-\	8bb-\	6 5
.	.	8b-\J	8gg\J	8gg\J	.
=127	=127	=127	=127	=127	=127
8D\L	4F#/	(4a/	(4ff#\	(4ff#\	#
8d\	.	.	.	.	.
8d\	4d\	4ff#\)	4aa\)	4aa\)	.
8D\	.	.	.	.	.
8d\	4d\	4a/	4cc\	4cc\	7 #
8D\J	.	.	.	.	.
=128	=128	=128	=128	=128	=128
4G\	4d\	8g\L	8b-\L	8b-\L	.
.	.	8dd\	8gg\	8gg\	.
4G\	4d\	8gg\	8bb-\	8bb-\	.
.	.	8dd\	8gg\	8gg\	.
4G\	4d\	8gg\	8bb-\	8bb-\	.
.	.	8b-\J	8gg\J	8gg\J	.
=129	=129	=129	=129	=129	=129
8d\L	4d\	(4a/	(4ff#\	(4ff#\	#
8D\	.	.	.	.	.
8d\	4d\	4ff#\)	4aa\)	4aa\)	.
8D\	.	.	.	.	.
8d\	4d\	4a/	4cc\	4cc\	7 #
8D\J	.	.	.	.	.
=130	=130	=130	=130	=130	=130
8G\L	8d\L	8g/L	8b-/L	8b-/L	.
8G\J	8g\J	8g/J	8g/J	8g/J	.
*	*	*	*	*strophe	*
*	*	*	*	*^	*
*	*	*	*	*S/S	*S/A	*
8D/L	8d\L	8d/L	8d/L	8d/L	8c/L	.
8BB-/J	8B-\J	8B-/J	8B-/J	8B-/J	8A/J	.
*	*	*	*	*S/fin	*S/fin	*
*	*	*	*	*v	*v	*
*	*	*	*	*S-	*
4GG/	4G/	4G/	4G/	4G/	.
=131	=131	=131	=131	=131	=131
! Tasto solo (marking not present in Amsterdam print)	!	!	!	!	!
[2.D\	2.r	2.r	2.r	16ggg\LL	#
.	.	.	.	16gg\	.
.	.	.	.	16d/	.
.	.	.	.	16gg\JJ	.
.	.	.	.	16ggg\LL	.
.	.	.	.	16gg\	.
.	.	.	.	16d/	.
.	.	.	.	16gg\JJ	.
.	.	.	.	16ggg\LL	.
.	.	.	.	16gg\	.
.	.	.	.	16d/	.
.	.	.	.	16gg\JJ	.
=132	=132	=132	=132	=132	=132
2.D_\	2.r	2.r	2.r	16ggg\LL	.
.	.	.	.	16bb-\	.
.	.	.	.	16d/	.
.	.	.	.	16bb-\JJ	.
.	.	.	.	16ggg\LL	.
.	.	.	.	16bb-\	.
.	.	.	.	16d/	.
.	.	.	.	16bb-\JJ	.
.	.	.	.	16ggg\LL	.
.	.	.	.	16bb-\	.
.	.	.	.	16d/	.
.	.	.	.	16bb-\JJ	.
=133	=133	=133	=133	=133	=133
2.D_\	2.r	2.r	2.r	16ggg\LL	.
.	.	.	.	16aa\	.
.	.	.	.	16d/	.
.	.	.	.	16aa\JJ	.
.	.	.	.	16ggg\LL	.
.	.	.	.	16aa\	.
.	.	.	.	16d/	.
.	.	.	.	16aa\JJ	.
.	.	.	.	16ggg\LL	.
.	.	.	.	16aa\	.
.	.	.	.	16d/	.
.	.	.	.	16aa\JJ	.
=134	=134	=134	=134	=134	=134
2.D_\	2.r	2.r	2.r	16fff#\LL	.
.	.	.	.	16aa\	.
.	.	.	.	16d/	.
.	.	.	.	16aa\JJ	.
.	.	.	.	16fff#\LL	.
.	.	.	.	16aa\	.
.	.	.	.	16d/	.
.	.	.	.	16aa\JJ	.
.	.	.	.	16fff#\LL	.
.	.	.	.	16aa\	.
.	.	.	.	16d/	.
.	.	.	.	16aa\JJ	.
=135	=135	=135	=135	=135	=135
2.D_\	2.r	2.r	2.r	16ggg\LL	.
.	.	.	.	16gg\	.
.	.	.	.	16d/	.
.	.	.	.	16gg\JJ	.
.	.	.	.	16ggg\LL	.
.	.	.	.	16gg\	.
.	.	.	.	16d/	.
.	.	.	.	16gg\JJ	.
.	.	.	.	16ggg\LL	.
.	.	.	.	16gg\	.
.	.	.	.	16d/	.
.	.	.	.	16gg\JJ	.
=136	=136	=136	=136	=136	=136
2.D_\	2.r	2.r	2.r	16fff\LL	.
.	.	.	.	16gg\	.
.	.	.	.	16d/	.
.	.	.	.	16gg\JJ	.
.	.	.	.	16fff\LL	.
.	.	.	.	16gg\	.
.	.	.	.	16d/	.
.	.	.	.	16gg\JJ	.
.	.	.	.	16fff\LL	.
.	.	.	.	16gg\	.
.	.	.	.	16d/	.
.	.	.	.	16gg\JJ	.
=137	=137	=137	=137	=137	=137
2.D_\	2.r	2.r	2.r	16eee-\LL	.
.	.	.	.	16gg\	.
.	.	.	.	16d/	.
.	.	.	.	16gg\JJ	.
.	.	.	.	16eee-\LL	.
.	.	.	.	16gg\	.
.	.	.	.	16d/	.
.	.	.	.	16gg\JJ	.
.	.	.	.	16eee-\LL	.
.	.	.	.	16gg\	.
.	.	.	.	16d/	.
.	.	.	.	16gg\JJ	.
=138	=138	=138	=138	=138	=138
2.D_\	2.r	2.r	2.r	16eee-\LL	.
.	.	.	.	16ccc\	.
.	.	.	.	16d/	.
.	.	.	.	16ccc\JJ	.
.	.	.	.	16eee-\LL	.
.	.	.	.	16ccc\	.
.	.	.	.	16d/	.
.	.	.	.	16ccc\JJ	.
.	.	.	.	16eee-\LL	.
.	.	.	.	16ccc\	.
.	.	.	.	16d/	.
.	.	.	.	16ccc\JJ	.
=139	=139	=139	=139	=139	=139
2.D_\	2.r	2.r	2.r	16eee-\LL	.
.	.	.	.	16ff#\	.
.	.	.	.	16d/	.
.	.	.	.	16ff#\JJ	.
.	.	.	.	16eee-\LL	.
.	.	.	.	16ff#\	.
.	.	.	.	16d/	.
.	.	.	.	16ff#\JJ	.
.	.	.	.	16eee-\LL	.
.	.	.	.	16ff#\	.
.	.	.	.	16d/	.
.	.	.	.	16ff#\JJ	.
*>S140	*>S140	*>S140	*>S140	*>S140	*>S140
!! Selfridge-Field edition.
=140	=140	=140	=140	=140	=140
2.D_\	2.r	2.r	2.r	16ddd\LL	.
.	.	.	.	16ff#\	.
.	.	.	.	16d/	.
.	.	.	.	16ff#\JJ	.
.	.	.	.	16ddd\LL	.
.	.	.	.	16ff#\	.
.	.	.	.	16d/	.
.	.	.	.	16ff#\JJ	.
.	.	.	.	16ddd\LL	.
.	.	.	.	16ff#\	.
.	.	.	.	16d/	.
.	.	.	.	16ff#\JJ	.
*>A140	*>A140	*>A140	*>A140	*>A140	*>A140
!! Amsterdam print.
=140	=140	=140	=140	=140	=140
2.D_\	2.r	2.r	2.r	16ddd\LL	.
.	.	.	.	16ff\	.
.	.	.	.	16d/	.
.	.	.	.	16ff\JJ	.
.	.	.	.	16ddd\LL	.
.	.	.	.	16ff\	.
.	.	.	.	16d/	.
.	.	.	.	16ff\JJ	.
.	.	.	.	16ddd\LL	.
.	.	.	.	16ff\	.
.	.	.	.	16d/	.
.	.	.	.	16ff\JJ	.
*>etc2	*>etc2	*>etc2	*>etc2	*>etc2	*>etc2
=141	=141	=141	=141	=141	=141
2.D_\	2.r	2.r	2.r	16aaa\LL	.
.	.	.	.	16ff#\	.
.	.	.	.	16d/	.
.	.	.	.	16ff#\JJ	.
.	.	.	.	16aaa\LL	.
.	.	.	.	16ff#\	.
.	.	.	.	16d/	.
.	.	.	.	16ff#\JJ	.
.	.	.	.	16aaa\LL	.
.	.	.	.	16ff#\	.
.	.	.	.	16d/	.
.	.	.	.	16ff#\JJ	.
*>S142	*>S142	*>S142	*>S142	*>S142	*>S142
!! Selfridge-Field edition.
=142	=142	=142	=142	=142	=142
2.D_\	2.r	2.r	2.r	16aaa\LL	.
.	.	.	.	16ff#\	.
.	.	.	.	16d/	.
.	.	.	.	16ff#\JJ	.
.	.	.	.	16aaa\LL	.
.	.	.	.	16ff#\	.
.	.	.	.	16d/	.
.	.	.	.	16ff#\JJ	.
.	.	.	.	16aaa\LL	.
.	.	.	.	16ff#\	.
.	.	.	.	16d/	.
.	.	.	.	16ff#\JJ	.
=143	=143	=143	=143	=143	=143
2.D_\	2.r	2.r	2.r	16aaa\LL	.
.	.	.	.	16bb-\	.
.	.	.	.	16d/	.
.	.	.	.	16bb-\JJ	.
.	.	.	.	16aaa\LL	.
.	.	.	.	16bb-\	.
.	.	.	.	16d/	.
.	.	.	.	16bb-\JJ	.
.	.	.	.	16aaa\LL	.
.	.	.	.	16bb-\	.
.	.	.	.	16d/	.
.	.	.	.	16bb-\JJ	.
=144	=144	=144	=144	=144	=144
2.D_\	2.r	2.r	2.r	16ggg\LL	.
.	.	.	.	16bb-\	.
.	.	.	.	16d/	.
.	.	.	.	16bb-\JJ	.
.	.	.	.	16ggg\LL	.
.	.	.	.	16bb-\	.
.	.	.	.	16d/	.
.	.	.	.	16bb-\JJ	.
.	.	.	.	16ggg\LL	.
.	.	.	.	16bb-\	.
.	.	.	.	16d/	.
.	.	.	.	16bb-\JJ	.
=145	=145	=145	=145	=145	=145
2.D_\	2.r	2.r	2.r	16ggg\LL	.
.	.	.	.	16aa\	.
.	.	.	.	16d/	.
.	.	.	.	16aa\JJ	.
.	.	.	.	16ggg\LL	.
.	.	.	.	16aa\	.
.	.	.	.	16d/	.
.	.	.	.	16aa\JJ	.
.	.	.	.	16ggg\LL	.
.	.	.	.	16aa\	.
.	.	.	.	16d/	.
.	.	.	.	16aa\JJ	.
=146	=146	=146	=146	=146	=146
2.D_\	2.r	2.r	2.r	16fff\LL	.
.	.	.	.	16ddd\	.
.	.	.	.	16d/	.
.	.	.	.	16ddd\JJ	.
.	.	.	.	16fff\LL	.
.	.	.	.	16ddd\	.
.	.	.	.	16d/	.
.	.	.	.	16ddd\JJ	.
.	.	.	.	16fff\LL	.
.	.	.	.	16ddd\	.
.	.	.	.	16d/	.
.	.	.	.	16ddd\JJ	.
=147	=147	=147	=147	=147	=147
2.D_\	2.r	2.r	2.r	16fff\LL	.
.	.	.	.	16gg#\	.
.	.	.	.	16d/	.
.	.	.	.	16gg#\JJ	.
.	.	.	.	16fff\LL	.
.	.	.	.	16gg#\	.
.	.	.	.	16d/	.
.	.	.	.	16gg#\JJ	.
.	.	.	.	16fff\LL	.
.	.	.	.	16gg#\	.
.	.	.	.	16d/	.
.	.	.	.	16gg#\JJ	.
=148	=148	=148	=148	=148	=148
2.D_\	2.r	2.r	2.r	16eeen\LL	.
.	.	.	.	16gg#\	.
.	.	.	.	16d/	.
.	.	.	.	16gg#\JJ	.
.	.	.	.	16eee\LL	.
.	.	.	.	16gg#\	.
.	.	.	.	16d/	.
.	.	.	.	16gg#\JJ	.
.	.	.	.	16eee\LL	.
.	.	.	.	16gg#\	.
.	.	.	.	16d/	.
.	.	.	.	16gg#\JJ	.
=149	=149	=149	=149	=149	=149
2.D_\	2.r	2.r	2.r	16aaa\LL	.
.	.	.	.	16ccc\	.
.	.	.	.	16d/	.
.	.	.	.	16ccc\JJ	.
.	.	.	.	16aaa\LL	.
.	.	.	.	16ccc\	.
.	.	.	.	16d/	.
.	.	.	.	16ccc\JJ	.
.	.	.	.	16aaa\LL	.
.	.	.	.	16ccc\	.
.	.	.	.	16d/	.
.	.	.	.	16ccc\JJ	.
*>T142	*>T142	*>T142	*>T142	*>T142	*>T142
!! Turin autograph.
=142	=142	=142	=142	=142	=142
2.D]\	2.r	2.r	2.r	16aaa\LL	.
.	.	.	.	16ff#\	.
.	.	.	.	16d/	.
.	.	.	.	16ff#\JJ	.
.	.	.	.	16aaa\LL	.
.	.	.	.	16ff#\	.
.	.	.	.	16d/	.
.	.	.	.	16ff#\JJ	.
.	.	.	.	16aaa\LL	.
.	.	.	.	16ff#\	.
.	.	.	.	16d/	.
.	.	.	.	16ff#\JJ	.
=143	=143	=143	=143	=143	=143
2.r	2.r	2.r	2.r	16aaa\LL	.
.	.	.	.	16bb-\	.
.	.	.	.	16d/	.
.	.	.	.	16bb-\JJ	.
.	.	.	.	16aaa\LL	.
.	.	.	.	16bb-\	.
.	.	.	.	16d/	.
.	.	.	.	16bb-\JJ	.
.	.	.	.	16aaa\LL	.
.	.	.	.	16bb-\	.
.	.	.	.	16d/	.
.	.	.	.	16bb-\JJ	.
=144	=144	=144	=144	=144	=144
2.r	2.r	2.r	2.r	16ggg\LL	.
.	.	.	.	16bb-\	.
.	.	.	.	16d/	.
.	.	.	.	16bb-\JJ	.
.	.	.	.	16ggg\LL	.
.	.	.	.	16bb-\	.
.	.	.	.	16d/	.
.	.	.	.	16bb-\JJ	.
.	.	.	.	16ggg\LL	.
.	.	.	.	16bb-\	.
.	.	.	.	16d/	.
.	.	.	.	16bb-\JJ	.
=145	=145	=145	=145	=145	=145
2.r	2.r	2.r	2.r	16ggg\LL	.
.	.	.	.	16aa\	.
.	.	.	.	16d/	.
.	.	.	.	16aa\JJ	.
.	.	.	.	16ggg\LL	.
.	.	.	.	16aa\	.
.	.	.	.	16d/	.
.	.	.	.	16aa\JJ	.
.	.	.	.	16ggg\LL	.
.	.	.	.	16aa\	.
.	.	.	.	16d/	.
.	.	.	.	16aa\JJ	.
=146	=146	=146	=146	=146	=146
2.r	2.r	2.r	2.r	16fff\LL	.
.	.	.	.	16ddd\	.
.	.	.	.	16d/	.
.	.	.	.	16ddd\JJ	.
.	.	.	.	16fff\LL	.
.	.	.	.	16ddd\	.
.	.	.	.	16d/	.
.	.	.	.	16ddd\JJ	.
.	.	.	.	16fff\LL	.
.	.	.	.	16ddd\	.
.	.	.	.	16d/	.
.	.	.	.	16ddd\JJ	.
=147	=147	=147	=147	=147	=147
2.r	2.r	2.r	2.r	16fff\LL	.
.	.	.	.	16gg#\	.
.	.	.	.	16d/	.
.	.	.	.	16gg#\JJ	.
.	.	.	.	16fff\LL	.
.	.	.	.	16gg#\	.
.	.	.	.	16d/	.
.	.	.	.	16gg#\JJ	.
.	.	.	.	16fff\LL	.
.	.	.	.	16gg#\	.
.	.	.	.	16d/	.
.	.	.	.	16gg#\JJ	.
=148	=148	=148	=148	=148	=148
2.r	2.r	2.r	2.r	16eeen\LL	.
.	.	.	.	16gg#\	.
.	.	.	.	16d/	.
.	.	.	.	16gg#\JJ	.
.	.	.	.	16eee\LL	.
.	.	.	.	16gg#\	.
.	.	.	.	16d/	.
.	.	.	.	16gg#\JJ	.
.	.	.	.	16eee\LL	.
.	.	.	.	16gg#\	.
.	.	.	.	16d/	.
.	.	.	.	16gg#\JJ	.
=149	=149	=149	=149	=149	=149
[2.D\	2.r	2.r	2.r	16aaa\LL	.
.	.	.	.	16ccc\	.
.	.	.	.	16d/	.
.	.	.	.	16ccc\JJ	.
.	.	.	.	16aaa\LL	.
.	.	.	.	16ccc\	.
.	.	.	.	16d/	.
.	.	.	.	16ccc\JJ	.
.	.	.	.	16aaa\LL	.
.	.	.	.	16ccc\	.
.	.	.	.	16d/	.
.	.	.	.	16ccc\JJ	.
*>etc3	*>etc3	*>etc3	*>etc3	*>etc3	*>etc3
=150	=150	=150	=150	=150	=150
2.D_\	2.r	2.r	2.r	16aaa\LL	.
.	.	.	.	16bb-\	.
.	.	.	.	16d/	.
.	.	.	.	16bb-\JJ	.
.	.	.	.	16aaa\LL	.
.	.	.	.	16bb-\	.
.	.	.	.	16d/	.
.	.	.	.	16bb-\JJ	.
.	.	.	.	16aaa\LL	.
.	.	.	.	16bb-\	.
.	.	.	.	16d/	.
.	.	.	.	16bb-\JJ	.
=151	=151	=151	=151	=151	=151
2.D_\	2.r	2.r	2.r	16ggg\LL	.
.	.	.	.	16bb-\	.
.	.	.	.	16d/	.
.	.	.	.	16bb-\JJ	.
.	.	.	.	16ggg\LL	.
.	.	.	.	16bb-\	.
.	.	.	.	16d/	.
.	.	.	.	16bb-\JJ	.
.	.	.	.	16ggg\LL	.
.	.	.	.	16bb-\	.
.	.	.	.	16d/	.
.	.	.	.	16bb-\JJ	.
=152	=152	=152	=152	=152	=152
2.D_\	2.r	2.r	2.r	16fff#\LL	.
.	.	.	.	16bb-\	.
.	.	.	.	16d/	.
.	.	.	.	16bb-\JJ	.
.	.	.	.	16fff#\LL	.
.	.	.	.	16bb-\	.
.	.	.	.	16d/	.
.	.	.	.	16bb-\JJ	.
.	.	.	.	16ggg\LL	.
.	.	.	.	16bb-\	.
.	.	.	.	16d/	.
.	.	.	.	16bb-\JJ	.
=153	=153	=153	=153	=153	=153
2.D_\	2.r	2.r	2.r	16aaa\LL	.
.	.	.	.	16ccc\	.
.	.	.	.	16d/	.
.	.	.	.	16ccc\JJ	.
.	.	.	.	16aaa\LL	.
.	.	.	.	16ccc\	.
.	.	.	.	16d/	.
.	.	.	.	16ccc\JJ	.
.	.	.	.	16ggg\LL	.
.	.	.	.	16bb-\	.
.	.	.	.	16d/	.
.	.	.	.	16bb-\JJ	.
=154	=154	=154	=154	=154	=154
2.D_\	2.r	2.r	2.r	16fff#\LL	.
.	.	.	.	16aa\	.
.	.	.	.	16d/	.
.	.	.	.	16aa\JJ	.
.	.	.	.	16fff#\LL	.
.	.	.	.	16aa\	.
.	.	.	.	16d/	.
.	.	.	.	16aa\JJ	.
.	.	.	.	16ggg\LL	.
.	.	.	.	16bb-\	.
.	.	.	.	16d/	.
.	.	.	.	16bb-\JJ	.
=155	=155	=155	=155	=155	=155
2.D_\	2.r	2.r	2.r	16aaa\LL	.
.	.	.	.	16ccc\	.
.	.	.	.	16d/	.
.	.	.	.	16ccc\JJ	.
.	.	.	.	16aaa\LL	.
.	.	.	.	16ccc\	.
.	.	.	.	16d/	.
.	.	.	.	16ccc\JJ	.
.	.	.	.	16eeen\LL	.
.	.	.	.	16bb-\	.
.	.	.	.	16d/	.
.	.	.	.	16bb-\JJ	.
=156	=156	=156	=156	=156	=156
2.D_\	2.r	2.r	2.r	16fff#\LL	.
.	.	.	.	16aa\	.
.	.	.	.	16d/	.
.	.	.	.	16aa\JJ	.
.	.	.	.	16fff#\LL	.
.	.	.	.	16aa\	.
.	.	.	.	16d/	.
.	.	.	.	16aa\JJ	.
.	.	.	.	16ggg\LL	.
.	.	.	.	16bb-\	.
.	.	.	.	16d/	.
.	.	.	.	16bb-\JJ	.
=157	=157	=157	=157	=157	=157
2.D\]	2.r	2.r	2.r	16ggg\LL	#
.	.	.	.	16aa\	.
.	.	.	.	16d/	.
.	.	.	.	16aa\JJ	.
.	.	.	.	16ggg\LL	.
.	.	.	.	16aa\	.
.	.	.	.	16d/	.
.	.	.	.	16aa\JJ	.
.	.	.	.	16fff#\LL	.
.	.	.	.	16aa\	.
.	.	.	.	16d/	.
.	.	.	.	16aa\JJ	.
=158	=158	=158	=158	=158	=158
8G\L	8b-\L	4b-\	4b-\	4ggg\ 4bb-\ 4d\	.
8G\	8b-\	.	.	.	.
8G\	8b-\	2gg\	2gg\	2gg\	.
8G\	8b-\	.	.	.	.
8G\	8b-\	.	.	.	.
8G\J	8b-\J	.	.	.	.
=159	=159	=159	=159	=159	=159
8A\L	8a\L	4cc\	4cc\	4cc\	7
8A\	8a\	.	.	.	.
8A\	8a\	2gg\	2gg\	2gg\	.
8A\	8a\	.	.	.	.
8A\	8a\	.	.	.	.
8A\J	8a\J	.	.	.	.
=160	=160	=160	=160	=160	=160
8B-\L	8g\L	4dd\	4dd\	4dd\	6
8B-\	8g\	.	.	.	.
8B-\	8g\	2gg\	2gg\	2gg\	.
8B-\	8g\	.	.	.	.
8B-\	8g\	.	.	.	.
8B-\J	8g\J	.	.	.	.
=161	=161	=161	=161	=161	=161
8c\L	8g\L	4ee-\	4ee-\	4ee-\	6 5
8c\	8g\	.	.	.	.
8c\	8g\	2gg\	2gg\	2gg\	.
8c\	8g\	.	.	.	.
8c\	8cc\	.	.	.	.
8c\J	8cc\J	.	.	.	.
=162	=162	=162	=162	=162	=162
4d\	4a\	8ff#\L	8ff#\L	8ff#\L	#
.	.	16aa\L	16aa\L	16aa\L	.
.	.	16gg\JJ	16gg\JJ	16gg\JJ	.
4r	4r	8ff#\L	8ff#\L	8ff#\L	.
.	.	8een\J	8een\J	8een\J	.
4F#\	4a\	8dd\L	8dd\L	8dd\L	6 5
.	.	8cc\J	8cc\J	8cc\J	.
=163	=163	=163	=163	=163	=163
4G\	4d\	8b-\L	8b-\L	8b-\L	.
.	.	16dd\L	16dd\L	16dd\L	.
.	.	16cc\JJ	16cc\JJ	16cc\JJ	.
4r	4r	8b-/L	8b-/L	8b-/L	.
.	.	8a/J	8a/J	8a/J	.
4D\	4d\	8g/L	8g/L	8g/L	.
.	.	8f/J	8f/J	8f/J	.
=164	=164	=164	=164	=164	=164
8E-\L	8e-\L	8e-/L	8e-/L	8e-/L	.
16E-\L	16e-\L	16e-/L	16e-/L	16e-/L	.
16D\JJ	16d\JJ	16d/JJ	16d/JJ	16d/JJ	.
8C/L	8c/L	8c/L	8c/L	8c/L	.
8BB-/J	8B-/J	8B-/J	8B-/J	8B-/J	.
8AA/L	8A/L	8A/L	8A/L	8A/L	.
8GG/J	8G/J	8G/J	8G/J	8G/J	.
=165	=165	=165	=165	=165	=165
4D\	4d\	4d/	4d/	4d/	#
4GG/	4d\	4b-\	4gg\	4gg\	.
4G\	4b-\	4r	4r	4r	.
=166	=166	=166	=166	=166	=166
4D\	4a\	8r	8r	8r	#
.	.	16a/LL	16ff#\LL	16ff#\LL	.
.	.	16b-/JJ	16gg\JJ	16gg\JJ	.
4DD/	4f#\	8cc/L	8aa\L	8aa\L	.
.	.	8a/J	8cc\J	8cc\J	.
4D\	4f#\	8g/L	8b-/L	8b-/L	.
.	.	8f#/J	8a/J	8a/J	.
=167	=167	=167	=167	=167	=167
4G\	4d\	4g/	4b-\	4b-\	.
4GG/	4d\	4b-\	4gg\	4gg\	.
4G\	4b-\	4r	4r	4r	.
=168	=168	=168	=168	=168	=168
4D\	4a\	8r	8r	8r	#
.	.	16a/LL	16ff#\LL	16ff#\LL	.
.	.	16b-/JJ	16gg\JJ	16gg\JJ	.
4DD/	4f#\	8cc/L	8aa\L	8aa\L	.
.	.	8a/J	8cc\J	8cc\J	.
4D\	4f#\	8g/L	8b-/L	8b-/L	.
.	.	8f#/J	8a/J	8a/J	.
=169	=169	=169	=169	=169	=169
4G\	4d\	8g/L	8b-\L	8b-\L	.
.	.	16b-/L	16dd\L	16dd\L	.
.	.	16a/JJ	16cc\JJ	16cc\JJ	.
8GG/L	8d\L	8g/L	8b-\L	8b-\L	.
8G/J	8d\J	8b-/J	8gg\J	8gg\J	.
8C/L	8e-\L	8cc/L	8aa\L	8aa\L	6 5
8D/J	8d\J	8a/J	8ff#\J	8ff#\J	#
=170	=170	=170	=170	=170	=170
2.GG;/	2.d;\	2.b-;\	2.gg;\	2.gg;\	.
==|!	==|!	==|!	==|!	==|!	==|!
*-	*-	*-	*-	*-	*-
!!!CDT: 1678/3/4/-1741/7/28
!!!OCY: Italia
!!!ODE: Count Wenzeslaus von Morzin of Bohemia; Count Wenceslas of Morzin
!!!ODT: 1725///
!!!OPC: Venezia; Venice
!!!AGN: concerto
!!!AST: baroque
!!!AMT: simple triple
!!!PPR: Michel-Charles Le Ce`ne
!!!PC#: Le Cene No. 521
!!!PDT: 1725///
!!!PPP: Amsterdam
!!!SCT: RV 332
!!!SMA1: The cooperation of the following libraries is gratefully acknowledged:
!!!SMA2: Saechsische Landesbibliothek, Dresden; Biblioteca Nazionale
!!!SMA3: Universitaria, Turin; Henry Watson Music Library, Manchester.
!!!YOR: New York: Dover Publications, Inc. 1995
!!!AIN: cello cemba viola violn
!!!EEV: 1.0
!!!RDT: 1994/5/2/
!!!YER: 1996/10/31/
!!!YEP: Center for Computer Assisted Research in the Humanities
!!!YEN: United States of America
!!!EFL: 3/3
!!!ENC: Edmund Correia, Jr.
!!!EED: Eleanor Selfridge-Field
